X:1
T:Title
%%score [ 1 2 3 4 ]
L:1/8
Q:1/4=160
M:2/2
K:F
V:1 treble nm="S."
V:2 treble nm="A."
V:3 treble-8 transpose=12 nm="T."
V:4 bass nm="B."
V:1
 G4 B2 B2 | A4 z2 A2 | A2 A2 c3 B | AGF_E D2 B2 | A2 G4 ^F2 | G8 | z2 G2 GA Bc | d4 z2 d2 | %8
w: Si vous vou-|lez, si|vous vou- lez *|* * * * * je|le veulx *|bien,|C'est mar- * ché *|fait, c'est|
 d2 d2 c2 AB | cd e4 d2- | d2 ^c2 d4 | z2 d4 c2 | B3 A G2 G2 | B2 B2 A4 | z2 d4 c2 | B3 A G2 G2 | %16
w: mar- ché fait en- *|* * * tre|* nous deux;|Nous le|fe- * rons en|des- pit d'eulx,|Sans *|man- * * der|
 B2 B2 A2 c2 | cBAGFEDE | FG A4 G2 | G2 ^F2 G4 | z2 d4 c2 | B3 A G2 G2 | B2 B2 A4 | z2 d4 c2 | %24
w: quant ne com- *|||* * bien,|Nous le|fe- * rons en|des- pit d'eulx,|Sans de­|
 B3 A G2 G2 | B2 B2 A2 c2- | cBAGFEDE | FG A4 G2 | G2 ^F2 G4 |] %29
w: man­- * * ­der|quant ne com- *|||* * bien.|
V:2
 D4 G2 G2 | F4 z2 F2 | F2 F2 G2 A2 | F6 F2 | _E2 C2 D4- | D4 z4 | z8 | z2 D2 DE FG | A4 z2 A2- | %9
w: Si vous vou-|lez, si|vous vou- lez *|je le|veulx * bien,|||C'est mar- * ché *|fait en-|
 A2 A2 F2 G2 | A8 | z4 A4 | G2 F2 E2 E2 | G2 G2 F4 | z2 F4 F2 | F4 D2 D2 | D2 E2 F4- | F4 z2 D2- | %18
w: * tre nous *|deux;|Nous|le fe- rons en|des- pit d'eulx,|Sans de-|man- der quant|ne com- bien,|* quant|
 DE F2 E2 D2 | D8 | z4 A4 | G2 F2 E2 E2 | G2 G2 F4 | z2 F4 F2 | F4 D2 D2 | D2 E2 F4- | F4 z2 F2- | %27
w: * * * ne com-|bien,|Nous|le fe- rons en|des- pit d'eulx,|Sans de-|man- der quant|ne com- bien,|* quant|
 F2 F2 _E2 C2 | D4 D4 |] %29
w: * ne com- *|* bien.|
V:3
 G4 d2 d2 | d4 z2 A2 | c2 d2 e2 c2 | d6 d2 | c BAG A4 | G4 z2 G2 | GA Bc d2 B2 | Bc de f4 | %8
w: Si vous vou-|lez, si|vous vou- lez *|je le|* veulx * * *|bien, C'est|mar- * ché * fait, c'est|mar- * ché * fait|
 z2 f2 e2 f2- | fe c2 d4 | e4 d4 | g4 f2 e2 | d4 z2 c2 | B2 G2 d4 | z2 B4 A2 | d4 d2 B2 | %16
w: en- tre nous||* deux;|Nous le fe-|rons en|des- pit d'eulx,|Sans de-|man- der quant|
 B2 B2 c2 cB | c2 d3 cBA | B2 c3 BAG | A4 G4 | g4 f2 e2 | d4 z2 c2 | B2 G2 d4 | z2 B4 A2 | %24
w: ne com- bien, quant *|* ne * * *|* com­- * * *|* bien,|Nous le fe-|rons en|des- pit d'eulx,|Sans de-|
 d4 d2 B2 | B2 B2 c3 B | AGFEDEFG | AB c3 BAG | A4 G4 |] %29
w: man- der quant|ne com- bien, *||* * ne * * *|com- bien.|
V:4
 G,4 G,2 G,2 | D,4 z2 F,2 | F,2 D,2 C,2 F,2- | F,_E,D,C, B,,2 B,,2 | C,2 _E,2 D,4 | %5
w: Si vous vou-|Iez, si|vous vou ­lez je|* * * * * le|veulx * bien,|
 z2 G,2 G,A, B,C | D3 CB,A, G,2- | G,2 F,E, D,2 D,2 | D,E, F,G, A,2 D,2 | A,4 B,4 | A,4 z2 D2 | %11
w: C'est mar- * ché *|fait, * * * *|* * * * c'est|mar- * ché * fait en-|tre nous|deux; Nous|
 C2 B,2 A,4 | z2 D,2 E,2 C,2 | G,4 z2 D,2- | D,2 B,,2 F,4 | B,,2 B,2 B,A,G,F, | G,2 G,2 F,2 A,2- | %17
w: le fe- rons|en des- pit|d'eulx, Sans|* de- man-|der quant ne * * *|* com- bien, quant|
 A,G,F,E, D,2 G,2- | G,2 F,2 G,4 | D,4 D4 | C2 B,2 A,4 | z2 D,2 E,2 C,2 | G,4 z2 D,2- | %23
w: * * * * * ne|* * com-|bien, Nous|le fe- rons|en des- pit|d'eulx, Sans|
 D,2 B,,2 F,4 | B,,2 B,3 A,G,F, | G,2 G,2 F,4 | z2 D,4 B,,2 | F,3 E, C,2 _E,2 | D,4 G,4 |] %29
w: * de- man-|der quant * * *|ne com- bien,|quant ne|com­- * * *|* bien.|

